packages/design-system/src/icons/assets/img_typelogo_big.svg

<svg width="175" height="45" viewBox="0 0 175 45" fill="none" xmlns="http://www.w3.org/2000/svg">
<path d="M168.003 10.745C166.83 10.745 165.803 10.3233 164.923 9.48C164.08 8.6 163.658 7.57333 163.658 6.4C163.658 5.22667 164.08 4.2 164.923 3.32C165.803 2.44 166.83 2 168.003 2C169.213 2 170.24 2.44 171.083 3.32C171.963 4.2 172.403 5.22667 172.403 6.4C172.403 7.57333 171.963 8.6 171.083 9.48C170.24 10.3233 169.213 10.745 168.003 10.745ZM164.483 41.545V14.045H171.578V41.545H164.483Z" fill="#121212"/>
<path d="M158.482 20.8647H152.267V32.3047C152.267 33.2581 152.505 33.9547 152.982 34.3947C153.458 34.8347 154.155 35.0914 155.072 35.1647C155.988 35.2014 157.125 35.1831 158.482 35.1097V41.5447C153.605 42.0947 150.158 41.6364 148.142 40.1697C146.162 38.7031 145.172 36.0814 145.172 32.3047V20.8647H140.387V14.0447H145.172V8.48973L152.267 6.34473V14.0447H158.482V20.8647Z" fill="#121212"/>
<path d="M117.593 30.7104C118.546 34.1571 121.131 35.8804 125.348 35.8804C128.061 35.8804 130.115 34.9637 131.508 33.1304L137.228 36.4304C134.515 40.3537 130.518 42.3154 125.238 42.3154C120.691 42.3154 117.043 40.9404 114.293 38.1904C111.543 35.4404 110.168 31.9754 110.168 27.7954C110.168 23.6521 111.525 20.2054 114.238 17.4554C116.951 14.6687 120.435 13.2754 124.688 13.2754C128.721 13.2754 132.04 14.6687 134.643 17.4554C137.283 20.2421 138.603 23.6887 138.603 27.7954C138.603 28.7121 138.511 29.6837 138.328 30.7104H117.593ZM117.483 25.2104H131.508C131.105 23.3404 130.261 21.9471 128.978 21.0304C127.731 20.1137 126.301 19.6554 124.688 19.6554C122.781 19.6554 121.205 20.1504 119.958 21.1404C118.711 22.0937 117.886 23.4504 117.483 25.2104Z" fill="#121212"/>
<path d="M109.267 9.09491C105.381 8.80158 103.437 10.3599 103.437 13.7699V14.0449H109.267V20.8649H103.437V41.5449H96.3422V20.8649H92.3822V14.0449H96.3422V13.7699C96.3422 9.88325 97.4239 6.93158 99.5872 4.91491C101.751 2.89825 104.977 2.01825 109.267 2.27491V9.09491Z" fill="#121212"/>
<path d="M78.1181 13.2754C81.1248 13.2754 83.5998 14.2837 85.5431 16.3004C87.5231 18.3171 88.5131 21.1037 88.5131 24.6604V41.5454H81.4181V25.5404C81.4181 23.7071 80.9231 22.3137 79.9331 21.3604C78.9431 20.3704 77.6231 19.8754 75.9731 19.8754C74.1398 19.8754 72.6731 20.4437 71.5731 21.5804C70.4731 22.7171 69.9231 24.4221 69.9231 26.6954V41.5454H62.8281V14.0454H69.9231V17.1254C71.6465 14.5587 74.3781 13.2754 78.1181 13.2754Z" fill="#121212"/>
<path d="M55.153 38.1354C52.3296 40.9221 48.883 42.3154 44.813 42.3154C40.743 42.3154 37.2963 40.9221 34.473 38.1354C31.6863 35.3121 30.293 31.8654 30.293 27.7954C30.293 23.7254 31.6863 20.2971 34.473 17.5104C37.2963 14.6871 40.743 13.2754 44.813 13.2754C48.883 13.2754 52.3296 14.6871 55.153 17.5104C57.9763 20.2971 59.388 23.7254 59.388 27.7954C59.388 31.8654 57.9763 35.3121 55.153 38.1354ZM39.478 33.2404C40.908 34.6704 42.6863 35.3854 44.813 35.3854C46.9396 35.3854 48.718 34.6704 50.148 33.2404C51.578 31.8104 52.293 29.9954 52.293 27.7954C52.293 25.5954 51.578 23.7804 50.148 22.3504C48.718 20.9204 46.9396 20.2054 44.813 20.2054C42.6863 20.2054 40.908 20.9204 39.478 22.3504C38.0846 23.7804 37.388 25.5954 37.388 27.7954C37.388 29.9954 38.0846 31.8104 39.478 33.2404Z" fill="#121212"/>
<path d="M16.52 42.3154C12.3767 42.3154 8.91167 40.9221 6.125 38.1354C3.375 35.3487 2 31.9021 2 27.7954C2 23.6887 3.375 20.2421 6.125 17.4554C8.91167 14.6687 12.3767 13.2754 16.52 13.2754C19.1967 13.2754 21.635 13.9171 23.835 15.2004C26.035 16.4837 27.7033 18.2071 28.84 20.3704L22.735 23.9454C22.185 22.8087 21.3417 21.9104 20.205 21.2504C19.105 20.5904 17.8583 20.2604 16.465 20.2604C14.3383 20.2604 12.5783 20.9754 11.185 22.4054C9.79167 23.7987 9.095 25.5954 9.095 27.7954C9.095 29.9587 9.79167 31.7554 11.185 33.1854C12.5783 34.5787 14.3383 35.2754 16.465 35.2754C17.895 35.2754 19.16 34.9637 20.26 34.3404C21.3967 33.6804 22.24 32.7821 22.79 31.6454L28.95 35.1654C27.74 37.3287 26.035 39.0704 23.835 40.3904C21.635 41.6737 19.1967 42.3154 16.52 42.3154Z" fill="#121212"/>
</svg>

<svg xmlns="http://www.w3.org/2000/svg" width="175" height="45" fill="none"><path fill="#121212" d="M168.003 10.745q-1.76 0-3.08-1.265-1.265-1.32-1.265-3.08t1.265-3.08q1.32-1.32 3.08-1.32 1.815 0 3.08 1.32 1.32 1.32 1.32 3.08t-1.32 3.08q-1.265 1.265-3.08 1.265m-3.52 30.8v-27.5h7.095v27.5zM158.482 20.865h-6.215v11.44q0 1.43.715 2.09.714.66 2.09.77 1.374.054 3.41-.055v6.435q-7.316.825-10.34-1.375-2.97-2.2-2.97-7.865v-11.44h-4.785v-6.82h4.785V8.49l7.095-2.145v7.7h6.215zM117.593 30.71q1.43 5.17 7.755 5.17 4.07 0 6.16-2.75l5.72 3.3q-4.07 5.886-11.99 5.885-6.82 0-10.945-4.125t-4.125-10.395q0-6.215 4.07-10.34 4.07-4.18 10.45-4.18 6.05 0 9.955 4.18 3.96 4.18 3.96 10.34 0 1.376-.275 2.915zm-.11-5.5h14.025q-.605-2.805-2.53-4.18-1.87-1.375-4.29-1.375-2.86 0-4.73 1.485-1.87 1.43-2.475 4.07M109.268 9.095q-5.83-.44-5.83 4.675v.275h5.83v6.82h-5.83v20.68h-7.095v-20.68h-3.96v-6.82h3.96v-.275q0-5.83 3.245-8.855t9.68-2.64zM78.118 13.275q4.51 0 7.425 3.025 2.97 3.026 2.97 8.36v16.885h-7.095V25.54q0-2.75-1.485-4.18-1.485-1.485-3.96-1.485-2.75 0-4.4 1.705t-1.65 5.115v14.85h-7.095v-27.5h7.095v3.08q2.585-3.85 8.195-3.85M55.153 38.135q-4.235 4.18-10.34 4.18t-10.34-4.18q-4.18-4.235-4.18-10.34t4.18-10.285q4.235-4.235 10.34-4.235t10.34 4.235q4.235 4.18 4.235 10.285t-4.235 10.34M39.478 33.24q2.145 2.145 5.335 2.145t5.335-2.145 2.145-5.445-2.145-5.445-5.335-2.145-5.335 2.145q-2.09 2.145-2.09 5.445t2.09 5.445M16.52 42.315q-6.215 0-10.395-4.18Q2 33.955 2 27.795t4.125-10.34q4.18-4.18 10.395-4.18 4.015 0 7.315 1.925t5.005 5.17l-6.105 3.575q-.825-1.704-2.53-2.695-1.65-.99-3.74-.99-3.19 0-5.28 2.145-2.09 2.09-2.09 5.39 0 3.246 2.09 5.39 2.09 2.09 5.28 2.09 2.145 0 3.795-.935 1.705-.99 2.53-2.695l6.16 3.52q-1.815 3.246-5.115 5.225-3.3 1.925-7.315 1.925"/></svg>
